assets/svg/icon_feed_telegram.svg

<svg width="24" height="24" viewBox="0 0 24 24" fill="none" xmlns="http://www.w3.org/2000/svg">
<path fill-rule="evenodd" clip-rule="evenodd" d="M19.1355 5.10262C19.3568 5.01176 19.5991 4.98042 19.837 5.01187C20.0749 5.04331 20.2999 5.1364 20.4884 5.28144C20.677 5.42647 20.8222 5.61815 20.9091 5.83653C20.9959 6.05491 21.0212 6.292 20.9822 6.52312L18.951 18.5415C18.754 19.7008 17.45 20.3656 16.3601 19.7881C15.4484 19.305 14.0943 18.5607 12.8763 17.7841C12.2673 17.3953 10.4018 16.1504 10.6311 15.2645C10.8281 14.5071 13.9627 11.6609 15.7538 9.96867C16.4568 9.30385 16.1362 8.92033 15.306 9.53186C13.2444 11.0502 9.93435 13.3592 8.83996 14.0092C7.87452 14.5823 7.37121 14.6801 6.76938 14.5823C5.6714 14.404 4.65313 14.128 3.82204 13.7916C2.69899 13.3373 2.75362 11.8312 3.82114 11.3927L19.1355 5.10262Z" stroke="black" stroke-width="1.2"/>
</svg>

<svg xmlns="http://www.w3.org/2000/svg" width="24" height="24" fill="none"><path stroke="#000" stroke-width="1.2" d="M19.136 5.103a1.37 1.37 0 0 1 1.352.178c.189.145.334.337.421.556.087.218.112.455.073.686l-2.031 12.019c-.197 1.159-1.501 1.824-2.59 1.246a53 53 0 0 1-3.485-2.004c-.609-.389-2.474-1.634-2.245-2.52.197-.757 3.332-3.603 5.123-5.295.703-.665.382-1.049-.448-.437-2.062 1.518-5.372 3.827-6.466 4.477-.965.573-1.469.671-2.07.573-1.099-.178-2.117-.454-2.948-.79-1.123-.455-1.068-1.96 0-2.4z" clip-rule="evenodd"/></svg>
